X:14
T:Northwest Passage
M:6/8
L:1/8
K:D
%%MIDI channel 1
%%MIDI program 72
%%MIDI transpose 8
%%MIDI grace 1/8
%%MIDI ratio 3 1
B|A2A ABc|d2d d2e|f2d e2d|fed B2d|A2A ABc|D2e f2e|afd efe|d3-d2::f|
g2b g2e|f2a f2d|eed ffd|B3 d3|A2A ABc|d2e F2g afd efe|d3-d2::z|
D3 F2G|Afe dBA|D3 F2b|afd e3|D3 F2G|Afe dBA|B2B A2b|afd e2:|
